icons/wren.svg

<svg width="16" height="16" viewBox="0 0 16 16" fill="none" xmlns="http://www.w3.org/2000/svg">
<path fill-rule="evenodd" clip-rule="evenodd" d="M2.69502 4.60526C3.02508 4.07672 3.75246 3.5 4.71052 3.5C5.86838 3.5 6.26814 3.92116 6.71868 4.39582L6.71868 4.39582C6.78423 4.46488 6.85086 4.53507 6.92105 4.60526C7.47368 5.15789 8.57894 6.26316 10.7895 6.26316C13.068 6.26316 14.6579 5.15789 14.6579 5.15789C14.2268 6.45114 13.4595 7.40812 12.6181 8.02884C12.8777 8.09333 13.1867 8.22976 13.5526 8.47368C12.8216 8.47368 12.4422 8.63344 12.1964 8.95578C12.3425 9.20136 12.4474 9.57205 12.4474 10.1316C11.9379 9.87684 11.5067 9.81781 11.1538 9.84622C10.7665 10.321 10.2742 10.6928 9.68421 10.932V12.8947L10.2368 13.4474V14C9.51706 13.6321 9.03068 13.6388 8.02631 14V13.4474L9.13158 12.8947V11.1097C8.78942 11.193 8.42063 11.2368 8.02631 11.2368C7.58069 11.2368 7.17998 11.1863 6.81853 11.0943L6.36842 12.8947L7.47368 13.4474V14C6.41318 13.4691 5.80865 13.4566 4.71052 14V13.4474L5.81579 12.8947L6.30763 10.9273C4.49969 10.1957 3.8279 8.31144 3.30712 6.85071L3.30711 6.8507C3.22239 6.61307 3.14167 6.38664 3.0607 6.17822C2.60588 5.63319 1.98799 4.98723 0.842102 4.60526H2.69502Z" fill="#909090" fill-opacity="0.9"/>
</svg>

<svg xmlns="http://www.w3.org/2000/svg" width="16" height="16" fill="none" viewBox="0 0 16 16"><path fill="#909090" fill-opacity=".9" fill-rule="evenodd" d="M2.695 4.605A2.43 2.43 0 0 1 4.711 3.5c1.157 0 1.557.421 2.008.896q.097.104.202.21c.553.552 1.658 1.657 3.869 1.657 2.278 0 3.868-1.105 3.868-1.105-.431 1.293-1.198 2.25-2.04 2.87.26.065.569.202.935.446-.731 0-1.11.16-1.357.482.146.245.251.616.251 1.176-.51-.255-.94-.314-1.293-.286-.387.475-.88.847-1.47 1.086v1.963l.553.552V14c-.72-.368-1.206-.361-2.21 0v-.553l1.105-.552V11.11a4.7 4.7 0 0 1-1.106.127 5 5 0 0 1-1.207-.143l-.45 1.8 1.105.553V14c-1.06-.53-1.665-.543-2.763 0v-.553l1.105-.552.492-1.968c-1.808-.731-2.48-2.616-3-4.076q-.127-.358-.247-.673c-.455-.545-1.073-1.19-2.219-1.573z" clip-rule="evenodd"/></svg>
